X:8924
T:La fille du paysan
R:Rondo
C:trad
A:Gascogne
O:France
M:2/4
L:1/8
Q:1/4=100
K:G
D|:G/2G/2G/2G/2 GA|B/2B/2B/2B/2 BB|cA FD|1G2GD:|2G2G z|
|dd dd|B2 G G/2A/2|Bd cB|A2 z D|G>A Bc|B2 dd|cc BA|G2 G z||


